X:1
T:Down Among the Dead Men
M:4/4
L:1/4
K:C
 z2 z E/2E/2| A A/2^G/2 A E/2E/2| F D E E| F E D C| G G C3/2 z/2| A A/2^G/2 A E|\
 F E/2D/2 E E| F E D C| G G C3/2 z/2| A3/2 G/2 A G| A B c2| C/2D/2 E/2F/2 G G|\
 D/2E/2 F/2G/2 A G| E2 D2| C2 B,2| c/2B/2 A/2^G/2 A E| E E A,2|
